images/btc-flot.svg

<svg width="113" height="151" viewBox="0 0 113 151" fill="none" xmlns="http://www.w3.org/2000/svg">
<path d="M49.2671 130.879C22.6099 115.02 1 77.0181 1 45.9999C0.999999 14.9818 22.6099 2.69316 49.2671 18.5525C75.9243 34.4119 97.5342 72.4136 97.5342 103.432C97.5342 134.45 75.9243 146.739 49.2671 130.879Z" fill="white" stroke="#0D0B33" stroke-width="1.72736"/>
<path fill-rule="evenodd" clip-rule="evenodd" d="M73.351 82.4489C74.3569 75.2531 69.2292 68.1121 62.2177 61.2753L64.4921 52.0541L58.9374 47.249L56.7231 56.2273C55.2648 54.9653 53.7654 53.7033 52.2755 52.4504L54.5056 43.4137L48.9556 38.6114L46.6796 47.828C45.4712 46.8125 44.285 45.8135 43.1335 44.8182L43.1398 44.7889L35.4815 38.1594L34.0042 44.1552C34.0042 44.1552 38.1244 47.6243 38.0374 47.6417C40.2865 49.5885 40.6946 51.5427 40.625 52.865L38.0343 63.3701C38.1893 63.5052 38.3901 63.6869 38.6116 63.9171L38.0264 63.4112L34.3933 78.125C34.1181 78.7551 33.4206 79.5359 31.8484 78.1789C31.9038 78.304 27.8121 74.6851 27.8121 74.6851L25.0552 80.4353L32.2834 86.6887C33.0992 87.3958 33.9051 88.1039 34.7022 88.8042L34.7028 88.8047L34.7048 88.8065C35.2204 89.2595 35.7322 89.7092 36.2407 90.1533L33.9425 99.4831L39.4894 104.284L41.767 95.057C43.2806 96.4057 44.7515 97.6933 46.1908 98.937L43.9228 108.12L49.4759 112.924L51.7741 103.616C61.2434 111.152 68.3656 114.43 71.3597 106.271C73.7749 99.7022 71.2411 93.6461 66.2588 87.7726C69.8872 88.8977 72.6203 87.7197 73.3494 82.448L73.351 82.4489ZM44.6462 89.3226L44.6461 89.3226L44.6455 89.3221C44.2401 88.9643 43.8778 88.6446 43.5685 88.3772L46.6179 76.022C46.9962 76.3494 47.4584 76.736 47.9819 77.1739L47.982 77.174C52.6683 81.0939 62.272 89.1271 60.663 95.6679L60.6614 95.667C59.0849 102.065 49.1759 93.3203 44.6462 89.3226ZM48.9239 71.1676C52.7036 74.5141 60.9423 81.8087 62.3775 75.9983C63.8448 70.0534 55.8335 63.381 51.9209 60.1223C51.4811 59.7559 51.093 59.4327 50.7761 59.1585L48.0113 70.3649C48.273 70.5912 48.58 70.8631 48.9239 71.1676Z" fill="black"/>
<path d="M49.2671 18.5525C36.0834 10.709 24.1341 9.75039 15.423 14.5373L25.0032 9.08948C43.8527 -1.6294 74.4138 16.5525 93.2633 49.6999C112.113 82.8474 112.113 118.408 93.2633 129.127L84.0495 134.366C84.0501 134.36 84.0507 134.354 84.0513 134.348C92.4007 129.219 97.5342 118.55 97.5342 103.432C97.5342 72.4136 75.9243 34.4119 49.2671 18.5525Z" fill="#79EFBD" stroke="#0D0B33" stroke-width="1.72736"/>
<path d="M97.2245 96.85L107.092 91.3772C106.953 86.0971 106.353 82.2851 104.317 74.0723L93.9039 79.8638C95.5759 85.5735 96.7122 91.2873 97.2245 96.85Z" fill="#0D0B33"/>
<path d="M89.4343 67.4597L99.0902 61.8097C88.7689 39.6683 80.8821 29.2504 62.5297 14.8146L52.5107 20.6071C67.9148 30.9609 81.3426 48.5478 89.4343 67.4597Z" fill="#0D0B33"/>
</svg>

<svg xmlns="http://www.w3.org/2000/svg" width="113" height="151" fill="none"><path fill="#fff" stroke="#0D0B33" stroke-width="1.727" d="M49.267 130.879C22.61 115.02 1 77.019 1 45.999 1 14.983 22.61 2.694 49.267 18.553c26.657 15.86 48.267 53.862 48.267 84.88 0 31.018-21.61 43.307-48.267 27.447Z"/><path fill="#000" fill-rule="evenodd" d="M73.351 82.449c1.006-7.196-4.122-14.337-11.133-21.174l2.274-9.22-5.555-4.806-2.214 8.978a414.327 414.327 0 0 0-4.447-3.777l2.23-9.036-5.55-4.803-2.276 9.217a336.644 336.644 0 0 1-3.547-3.01l.007-.03-7.659-6.629-1.477 5.996s4.12 3.47 4.033 3.487c2.25 1.947 2.658 3.9 2.588 5.223l-2.59 10.505c.154.135.355.317.577.547l-.586-.506-3.633 14.714c-.275.63-.972 1.41-2.545.054.056.125-4.036-3.494-4.036-3.494l-2.757 5.75 7.228 6.254c.816.707 1.622 1.415 2.42 2.115l.002.002c.515.454 1.027.903 1.536 1.347l-2.298 9.33 5.546 4.801 2.278-9.227a385.306 385.306 0 0 0 4.424 3.88l-2.268 9.183 5.553 4.804 2.298-9.308c9.47 7.536 16.592 10.814 19.586 2.655 2.415-6.569-.119-12.625-5.101-18.498 3.628 1.125 6.361-.053 7.09-5.325h.002Zm-28.705 6.874c-.406-.359-.768-.678-1.078-.946l3.05-12.355c.378.327.84.714 1.364 1.152 4.686 3.92 14.29 11.953 12.681 18.494l-.002-.001c-1.576 6.398-11.485-2.347-16.015-6.344Zm4.278-18.155c3.78 3.346 12.018 10.64 13.453 4.83 1.468-5.945-6.544-12.617-10.456-15.876-.44-.366-.828-.69-1.145-.964l-2.765 11.207c.262.226.569.498.913.803Z" clip-rule="evenodd"/><path fill="#79EFBD" stroke="#0D0B33" stroke-width="1.727" d="M49.267 18.552C36.083 10.71 24.134 9.75 15.423 14.537l9.58-5.448c18.85-10.718 49.41 7.463 68.26 40.61 18.85 33.148 18.85 68.709 0 79.428l-9.214 5.239.002-.018c8.35-5.129 13.483-15.798 13.483-30.916 0-31.018-21.61-69.02-48.267-84.88Z"/><path fill="#0D0B33" d="m97.225 96.85 9.867-5.473c-.139-5.28-.739-9.092-2.775-17.305l-10.413 5.792c1.672 5.71 2.808 11.423 3.32 16.986ZM89.434 67.46l9.656-5.65C88.77 39.668 80.882 29.25 62.53 14.815l-10.02 5.792c15.405 10.354 28.833 27.94 36.924 46.853Z"/></svg>
